outputs/icons/action/user_circle_round.svg

<svg xmlns="http://www.w3.org/2000/svg" width="1200" height="1200" fill="none"><g clip-path="url(#a)"><path fill="#000" d="M600 100c-276 0-500 224-500 500s224 500 500 500 500-224 500-500-224-500-500-500m0 150c83 0 150 67 150 150s-67 150-150 150-150-67-150-150 67-150 150-150m0 700c-125 0-235.5-54-300-151 1.5-99.5 200-154 300-154 99.5 0 298.5 54.5 300 154-64.5 97-175 151-300 151"/></g><defs><clipPath id="a"><path fill="#fff" d="M0 0h1200v1200H0z"/></clipPath></defs></svg>

<svg width="1200" height="1200" viewBox="0 0 1200 1200" fill="none" xmlns="http://www.w3.org/2000/svg"><g clip-path="url(#clip0_217_680)"><path d="M600 100C324 100 100 324 100 600C100 876 324 1100 600 1100C876 1100 1100 876 1100 600C1100 324 876 100 600 100ZM600 250C683 250 750 317 750 400C750 483 683 550 600 550C517 550 450 483 450 400C450 317 517 250 600 250ZM600 950C475 950 364.5 896 300 799C301.5 699.5 500 645 600 645C699.5 645 898.5 699.5 900 799C835.5 896 725 950 600 950Z" fill="#1D1E23"/></g><defs><clipPath id="clip0_217_680"><path width="24" fill="white" d="M0 0H1200V1200H0V0z"/></clipPath></defs></svg>
